X: 826
T: Gezdim Yürüdüm Dün Gece
C: Lem´i Atlı
O: Turkey
F: http://compmusic.upf.edu/node/140
N: muhayyer--sarki--senginsemai--gezdim_yurudum--lemi_atli
N: makam= muhayyer
N: form= sarki
N: usul= senginsemai = 6/4
M: 6/4
L: 1/16
K: C _2/4B ^3/4f  
Q: 1/4=60
%%MIDI tuningsystem comma53
f2g2 a2b2 g2f2 c'2ba a8  | fgab c'2ba ag2f (3agffe e8  | 
w:  ARANAĞME  |   | 
e3f g2a2 g2=f2 e2d2 dcde c2BA  | G3a g=fed c3B (3dcBBA A3B/c/ d/e/^3/4f/g/a2  | 
w:   |   | 
f2g2 a2b2 g2f2 c'2ba a8  | fgab c'2ba ag2f (3agffe e8  | 
w:  ARANAĞME  |   | 
e3f g2a2 g2=f2 e2d2 dcde c2BA  | G3a g=fed c3B (3dcBBA A3B/c/ d/e/^3/4f/g/a2  | 
w:   |   | 
g3a a4 a2g2 a3/2c'/ba a8  | a2c'2 b2a2 a3g g3f agfe d4  | 
w:  Gez *  dim  yü *  rü *  *  *  düm   |  dün  *  *  *  ge *  ce  *  hic  | 
d2de f2g2 a2b2 c'2d'2 c'2ba g2a2  | \
w:  *  râ *  *  *  nı *  mı  *  yen  | 
g4 a4 a_3/4bag ^2/4fefg a=fed cBA2  | 
w:  dim   SAZ  | 
g3a a4 a2g2 a3/2c'/ba a8  | a2c'2 b2a2 a3g g3f agfe d4  | 
w:  Gez *  dim  yü *  rü *  *  *  düm   |  dün  *  *  *  ge *  ce  *  hic  | 
d2de f2g2 a2b2 c'2d'2 c'2ba g2a2  | \
w:  *  râ *  *  *  nı *  mı  *  yen  | 
g4 a4 a_3/4bag ^2/4fefg af/e/de fgab  | 
w:  dim   SAZ  | 
c'3b b3a a3g ag=fe f4 z4  | c2=fe f2a2 g2f2 e2d2 d2ed c4  | 
w:  Tâ  *  fec *  re  *  ka *  *  *  dar   |  bal *  *  *  *  ko *  nun  *  al  | 
ag=fe d2e2 f2g2 e2d2 d4 cBAB  | c3B d3c B3A c2BA A3g fgab  | 
w:  tın *  *  *  *  *  da *  ki  *  ben  |  dim   *  *  *  *  *  *  *  *  SAZ  | 
c'3b b3a a3g ag=fe f4 z4  | c2=fe f2a2 g2f2 e2d2 d2ed c4  | 
w:  Tâ  *  fec *  re  *  ka *  *  *  dar   |  bal *  *  *  *  ko *  nun  *  al  | 
ag=fe d2e2 f2g2 e2d2 d4 cBAB  | c3B d3c B3A c2BA A3g fag2  | 
w:  tın *  *  *  *  *  da *  ki  *  ben  |  dim   *  *  *  *  *  *  *  *  SAZ  | 
f3g g4 g4 g4 g2_3/4ag fef2  | g3=b _3/4a2g2 f4 g2fe e4 z4  | 
w:  Bir  *  gün  ya şa mam   |  ben  *  *  *  se ni  *  *  gör  | 
f2ef g2fe d4 f2g2 a3/2c'/ba g2a2  | \
w:  mez *  *  *  *  *  sem  e *  fen  | 
g4 a4 a4 a2_7/8b2 d'^c'ba g4  | 
w:  dim    | 
a4 _7/8b4 ^c'4 d'2e'2 d'2=c'2 _2/4b4  | \
w:  Bir  gün  ya şa mam   | 
z2ac' _1/4b2a2 a3g g3f agfe d4  | 
w:  ben  *  *  *  se *  ni  *  gör  | 
d2de f2g2 a2b2 c'2d'2 c'c'ba g2a2  | \
w:  *  mez *  *  *  sem  *  e *  fen  | 
g4 a4 a_3/4bag fefg a4 z4  | 
w:  dim   *  SAZ  | 
c'3b b3a a3g ag=fe f4 z4  | c2=fe f2a2 g2f2 e2d2 d2ed c4  | 
w:  Tâ  *  fec *  re  *  ka *  *  *  dar   |  bal *  *  *  *  ko *  nun  *  al  | 
ag=fe d2e2 f2g2 e2d2 d4 cBAB  | c3B d3c B3A c2BA A3g fgab  | 
w:  tın *  *  *  *  *  da *  ki  *  ben  |  dim   *  *  *  *  *  *  *  *  SAZ  | 
c'3b b3a a3g ag=fe f4 z4  | c2=fe f2a2 g2f2 e2d2 d2ed c4  | 
w:  Tâ  *  fec *  re  *  ka *  *  *  dar   |  bal *  *  *  *  ko *  nun  *  al  | 
ag=fe d2e2 f2g2 e2d2 d4 cBAB  | c3B d3c B3A c2BA A8  | 
w:  tın *  *  *  *  *  da *  ki  *  ben  |  dim   KARAR *  *  *  *  *  *  *  SAZ  | 
|


